X: 124007
T: WILLIE DAVIE
Q: "Reel."
R: Reel.
%R: reel
B: James Kerr "Merry Melodies" v.1 p.24 s.0 #7
Z: 2017 John Chambers <jc:trillian.mit.edu>
M: C
L: 1/8
K: A
|:\
e2(ef) edcd | e2(ef) efga |\
e2(ef) edcd | Bcde f2e2 :|\
a2(Aa) fedc | a2(ea) f2e2 |\
a2(Aa) fedc | Bcde f2e2 |
a2(Aa) fedc | a2ea f2eg |\
abaf ecAc | Bcde f2e2 ::\
c2ea c2ea | c2ea gfed |\
c2ea c2ea | Bcde f2e2 :|
a2(Aa) fedc | a2(ea) f2e2 |\
a2(Aa) fedc | Bcde f2e2 |\
a2(Aa) fedc | a2ea f2eg |\
abaf ecAc | Bcde f2e2 |]

%%sep 1 1 500
%%sep 1 1 500

